/* XPM */
static char *_68abb77efc44d8acddf160fa01a52feSYWHWra8DG33qD7W[] = {
/* columns rows colors chars-per-pixel */
"64 64 256 2 ",
"   c #090A06",
".  c #120E08",
"X  c #17140B",
"o  c #181915",
"O  c #0E1210",
"+  c #271E14",
"@  c #26190C",
"#  c #292418",
"$  c #36291D",
"%  c #282927",
"&  c #342C22",
"*  c #3A2D26",
"=  c #3A3429",
"-  c #2B3133",
";  c #1C2122",
":  c #6B161B",
">  c #77181B",
",  c #770E0F",
"<  c #761C23",
"1  c #6D1B21",
"2  c #47392B",
"3  c #473D33",
"4  c #523029",
"5  c #752929",
"6  c #79332C",
"7  c #6A3C37",
"8  c #723433",
"9  c #5A241B",
"0  c #3B403C",
"q  c #4D4234",
"w  c #4B4539",
"e  c #554A3B",
"r  c #5B4B3D",
"t  c #534537",
"y  c #554D39",
"u  c #674739",
"i  c #76443A",
"p  c #73523E",
"a  c #564D42",
"s  c #5B4D41",
"d  c #574B48",
"f  c #5D5343",
"g  c #5C5648",
"h  c #53504E",
"j  c #654B41",
"k  c #794C45",
"l  c #625444",
"z  c #655649",
"x  c #655A4B",
"c  c #6C5C4C",
"v  c #695747",
"b  c #77594A",
"n  c #6B5D52",
"m  c #695B51",
"M  c #715E51",
"N  c #7B5854",
"B  c #6B614B",
"V  c #74634C",
"C  c #6C6254",
"Z  c #6D6659",
"A  c #736354",
"S  c #7A6455",
"D  c #75665A",
"F  c #7C6459",
"G  c #766A5B",
"H  c #7C6B5C",
"J  c #7A6956",
"K  c #74735A",
"L  c #7C6E61",
"P  c #776764",
"I  c #7D7263",
"U  c #7E756A",
"Y  c #6D7369",
"T  c #715E60",
"R  c #3B5047",
"E  c #931418",
"W  c #941A22",
"Q  c #88272B",
"!  c #972729",
"~  c #82312E",
"^  c #873A39",
"/  c #983738",
"(  c #922F30",
")  c #A9272B",
"_  c #A81A28",
"`  c #FC2C2A",
"'  c #E9392C",
"]  c #F7352C",
"[  c #EC3B34",
"{  c #EB3C37",
"}  c #F33533",
"|  c #F13B34",
" . c #F73838",
".. c #F82B30",
"X. c #DF342D",
"o. c #88413D",
"O. c #EB423A",
"+. c #F3403D",
"@. c #E5402D",
"#. c #9D3D47",
"$. c #FB3C43",
"%. c #EE3942",
"&. c #874946",
"*. c #964747",
"=. c #85544C",
"-. c #885953",
";. c #975A56",
":. c #96574B",
">. c #A55B56",
",. c #AB4E4E",
"<. c #826D5D",
"1. c #886658",
"2. c #96655B",
"3. c #84725E",
"4. c #8A735C",
"5. c #94715E",
"6. c #A8655C",
"7. c #B3645C",
"8. c #B47258",
"9. c #826D61",
"0. c #8A6B63",
"q. c #986963",
"w. c #847364",
"e. c #897565",
"r. c #8C7965",
"t. c #83766A",
"y. c #8A7669",
"u. c #857A6D",
"i. c #8C7B6B",
"p. c #857A67",
"a. c #937263",
"s. c #917D6C",
"d. c #977968",
"f. c #8C7F73",
"g. c #867A71",
"h. c #927D71",
"j. c #9B7A74",
"k. c #A86A65",
"l. c #B56C65",
"z. c #A7776A",
"x. c #B8766A",
"c. c #A77B76",
"v. c #B97B73",
"b. c #A65B62",
"n. c #D6514F",
"m. c #EA4646",
"M. c #F64746",
"N. c #EB4F52",
"B. c #CB6D6D",
"V. c #DA5E60",
"C. c #7C8D78",
"Z. c #93816D",
"A. c #9B866E",
"S. c #8D8274",
"D. c #8E847B",
"F. c #888A7A",
"G. c #948373",
"H. c #998574",
"J. c #9C8975",
"K. c #93857A",
"L. c #9A867A",
"P. c #948A7C",
"I. c #9C8B7C",
"U. c #958A75",
"Y. c #918C76",
"T. c #A18C75",
"R. c #A18D7C",
"E. c #A88479",
"W. c #B88577",
"Q. c #A5927C",
"!. c #AA947C",
"~. c #AC9C7B",
"^. c #B58D74",
"/. c #C3897A",
"(. c #C4967C",
"). c #F5877F",
"_. c #9E7D80",
"`. c #738E89",
"'. c #958B81",
"]. c #9C8E83",
"[. c #998784",
"{. c #9B9285",
"}. c #8B8F84",
"|. c #A18D81",
" X c #A98C84",
".X c #B78C86",
"XX c #A49383",
"oX c #AA9584",
"OX c #AB9985",
"+X c #AA9588",
"@X c #AD9B8B",
"#X c #A4988A",
"$X c #B19D8C",
"%X c #B59787",
"&X c #AB9E91",
"*X c #B69D92",
"=X c #ABA48C",
"-X c #B3A28D",
";X c #B9A38A",
":X c #ACA496",
">X c #B4A393",
",X c #BAA495",
"<X c #BBAA95",
"1X c #BCAC9B",
"2X c #B5A898",
"3X c #BEB19D",
"4X c #B5B59B",
"5X c #BBADA1",
"6X c #BCB3A4",
"7X c #BDB6A8",
"8X c #ADBBA2",
"9X c #C69887",
"0X c #CC8F8B",
"qX c #C1AE9C",
"wX c #C7A798",
"eX c #C3B19D",
"rX c #C9B399",
"tX c #CEA794",
"yX c #C4ADA4",
"uX c #C4B4A3",
"iX c #C5BAAC",
"pX c #CBBCAD",
"aX c #C9B6A7",
"sX c #D3B9A9",
"dX c #C8BEB1",
"fX c #D5BCB2",
"gX c #D9AAA4",
"hX c #F2A09B",
"jX c #BEC0AB",
"kX c #D6C1AB",
"lX c #CDC2B3",
"zX c #C8C7B6",
"xX c #D4C4B4",
"cX c #D9C3B5",
"vX c #DAC6B9",
"bX c #D5CABB",
"nX c #DBCBBB",
"mX c #D6C8B7",
"MX c #D0C9B3",
"NX c #E1CBBB",
"BX c #E4CFB1",
"VX c #C2C49F",
"CX c #DBD7C9",
"ZX c #D0D1C4",
"AX c #E4D5C7",
"SX c #E5DDD2",
"DX c #EAD0CA",
"FX c #DBE7D4",
"GX c #DAE5CD",
"HX c #E4E1CE",
"JX c #E3E2D4",
"KX c #E9E6D8",
"LX c #F3E7D9",
"PX c #E7F4DC",
"IX c #F7F3E6",
"UX c #F1EEE2",
/* pixels */
"lXuX*XtXhXhXV.N.).hX9Xw.g x n x C A G L I I I I w.I I I t.u.u.u.f.#XK.D.#Xg.s s ).m.` ` ` ] $...[ } ..} { O.O. .M.M.N.N.M.n.,.:.",
"iXXXS b 6.7.7.B.>.&.u x C C n C Z Z Z Z D H I I w.w.U t.u.u.f.f.u.'.D.f.{.'.t.S.B.n.m.$...' [ ' ' [ | } } } [ O.+.m.m.M.M.m.n.,.",
"#Xu.c l v v u u u 2 $ = w f g g g x C G H H H H L L L I I I I I t.S.f.f.K.P.'.#XF.j.B.V.m.X.] ` ` ' @.' ] ..} [ | { O.+.$.$.M.m.",
"w.A B x f f r t 3 q = & $ * 2 q C C m x m M D H L I I I I I t.t.u.u.S.S.f.f.K.K.}.}.[.E.l.V.m...` ` ' ' | } } } } [ [ [  . .M.M.",
"A c c c z z z s = = = 3 2 + + $ # = e n G H D M G G H L I I u.u.t.t.f.K.f.S.K.S.E.L.D.F.'. Xv.7.O.| ..` ] | | }  .} | | | +.+.+.",
"A M c c c j 4 4 3 3 = & 2 4 $ @ + + + # * t n L A D G H H H I I w.I t.u.u.S.K.D.S.S.D.D.'.'.'.P.x.n. ...` ' { {  . . .| O.O.O.O.",
"A A c l l t 3 u l x e & $ 2 2 # & & $ # # # $ = s z C G H L I I w.w.t.t.u.u.S.S.C.F.F.P.L.j.D.}.P.z.V.m.| } ' [ | }  . .| { +.m.",
"c w.I Z x q q B b A C g = # # = & = = & $ # # # @ $ 3 f c C G G I t.u.u.u.u.u.G._.L.K.P.].K.D.}.D.Y.A.8.n.} ....[ } } }  . .$.M.",
"G G H D x r s z j l M G l $ # $ * 3 s g e = & & # # # # & q z Z H w.t.y.u.i.G.G.D.D.K.'.{.{.'.P.P.F.}.[.c.B.N.%.} ] ` ]  . .m.m.",
"L L L H A z l l c l v A G z 2 $ r z C D n f a a e w = & & 3 e r c A I y.S.S.S.S.D.K.P.P.P.P.'.'.I.P.F.F.K.c.x.l.m.{ [ [ } [ { { ",
"I I I I L A z s r z M A G H c r J H 9.w.L G D D G C g e a g x z e r z x A I S.P.f.S.D.S.S.P.{.#XXX].'.}.F.F.Y.U.l.V.m. .[ ' |  .",
"I I I I I D c s r M G A M G w.w.y.e.w.w.w.<.H G D n f f x D G D A c f e t e z C t.f.K.P.K.K.K.P.P.].].].[.K.L.G.F.c.B.N.%.} ] ] ",
"I I I I L D n z A A A M A H y.i.h.i.e.e.e.e.<.F S c z z C I w.H I H G C r 3 2 2 e z G u.G.K.G.S.S.P.].|.[.[.L.K.F.F.G.l.n.%.} ' ",
"I w.I L L H A c A M c A H e.i.G.s.i.y.e.i.s.e.3.e.<.A A L i.G.s.y.y.y.e.A r 2 2 $ 2 q f n H u.G.S.P.'.].'.}.}.}.C.F.K.U.d.7.n.$.",
"I I I L L L D n x c A A G w.h.L.y.y.r.e.s.H.Z.r.s.<.A A 3.Z.H.H.|.I.L.G.H v r r z z f e q t l c L I u.S.F.F.F.F.F.K.j.D.C.F.l.V.",
"I I L H L w.G c A A c c A w.i.i.i.y.y.r.Z.J.J.A.H.a.<.J w.G.J.H.L.I.R.R.h.F M S A H I G z e e r w s c H y.h.j.j.j.f.C.f.j._.D.C.",
"w.L H H D A A A H G A A S w.y.i.i.e.e.r.s.T.Q.A.Z.r.r.F <.Z.H.J.I.XXXXI.G.3.J 9.i.i.i.w.M r t r t t q 2 t n w.g.w.u.S.S.u.S.Y.P.",
"t.I L H A A G w.w.w.w.w.y.G.I.I.Z.i.s.A.T.!.Q.A.Z.s.i.H <.Z.H.Q.oXOXOXI.i.J S w.G.L.U.w.A c z l f r t 2 2 2 3 q D L t.U U U u.f.",
"t.L D G H H w.e.y.y.i.i.G.R.+X+XI.H.H.T.OXOX!.T.Z.s.s.<.H s.J.Q.oXOXOXR.w.A H G.XX+XI.e.A A M c x l r t 2 $ # + @ & a D U t.U U ",
"t.G A H e.y.w.H w.y.i.h.H.|.+X@X@XI.H.Q.$X$X!.!.Z.i.r.F H s.H.Q.T.XXOXJ.J c w.R.#XXXL.w.A M c c c c z v r 2 $ $ 2 * $ $ = a D u.",
"w.L H w.e.w.S A w.y.h.G.L.XX$X>X$XXXH.T.;X;X!.!.Z.e.3.A H G.H.H.T.Q.Q.i.c c i.+X#XI.h.y.H A M A A A A A c r t t 3 3 q q q 3 3 3 ",
"L w.u.t.G c c A 9.y.i.s.G.XX>X1X@XOXJ.Q.<X<XQ.T.r.3.H A <.G.Z.Z.Q.I.J.w.c F XX$X@XXXI.I.G.w.H 9.H H H G A c v v r r e e e e q q ",
"I t.t.H c v c H w.y.i.y.i.L.@X<X>X>XI.J.<X<XQ.A.r.3.<.G w.H.Z.s.I.H.H.e.F G.+XH.L.U.L.|.I.G.i.i.y.y.e.w.H H J A c z l r r r r e ",
"g.I D c z c S e.i.s.i.e.e.G.+X>X1X1XT.H.;X<XQ.J.e.3.w.<.e.H.Z.Z.J.H.H.i.e.I.U.v z A w.i.L.|.I.G.G.U.s.w.H H J V c v l l v v l l ",
"w.L G c c A S s.G.i.y.G.i.I.I.-X<XqX<XOX!.;X;XT.H.s.3.<.s.H.i.L.4.4.H.H.I.m $ & * = 3 I u.H.s.r.i.y.w.H H 9.H J A A A A A A A A ",
"I A c l v A J i.s.G.G.|.|.$X+X@X>X>X>X;X;X;X~.T.H.A.r.H r.H.s.J.s.4.Q.G.e & X   X X # 3 x w.r.3.w.w.w.9.w.e.w.H w.H G G G G G G ",
"I c s r v G F e.i.L.R.@X@X>XI.y.A c G U.=XeX;XZ.A.T.T.r.s.J.G.H.r.J.@Xw.+ X X . o . # # e v 3.3.w.w.w.e.i.s.i.e.y.w.L H H H 9.9.",
"I l r s M w.w.i.G.R.XX$X@XL.H r 2 & $ & r R.aX<XT.T.!.T.T.Q.H.Z.H.1X>Xs # X . .     . X a q y.J.G.i.y.y.s.G.s.i.y.e.9.H H H 9.9.",
"H r r z A e.i.Z.L.I.I.oXI.D z 3 & % + . X r =XnX;X!.OXOXOX!.H.H.-XaX#X& = # % o o o   . a q OX-X+XI.s.i.i.h.G.G.i.i.e.w.w.w.w.w.",
"I r r c S e.i.G.S.G.r.s.r.s d w % o o o X # H mXkX;X;X;XOX!.Q.!.uX>XP.# 3 % h o - 0 o   w C 1X,X@XI.s.i.i.G.U.H.G.h.i.y.y.e.e.w.",
"K.v l A A w.e.e.w.i.4.4.3.e a = - o   o o X f kXBXrXrX;X!.!.!.!.eX,Xe.@ = X %   O ;     e I.>X$XI.s.e.y.G.L.I.R.I.H.s.y.e.e.w.w.",
"@XA z A A H <.H H Z.s.r.r.r w o % ; ; - % X q 3XBXrXrX%XA.A.J.A.!.eXH @ a o   o O O . # Z <XG.j.e.<.H e.H.R.XXXXoXR.H.i.e.e.e.e.",
"JX#XM S F r.<.1.H U.XX|.@Xe a . - % - - % o a 1XkXwXOXH.Z.U.Z.d.Z.U.p.3 2 f = @   X 3 I G.i.r.J.w.w.i.G.I.XX+XOXXX+XXXh.e.u.i.w.",
"KXSXuXH S.w.<.1.H G.H.XX+Xc a X o o ; o O o e XXOX;X!.H.H.s.r.d.H.H.y.c G I.&X5X&X:X#XS.e.y.Z.Z.I.I.I.Q.oXOX@X@X@X@X+XI.i.w.H L ",
"LXKXSXZXS.S.w.F H e.w.oXoXU.x & X .     + 3 H >XwX!.a.4.a.a.<.N e.e.S w.I.+XL.w.i.I.I.G.U.@X>XOXXXXXXXXXOX@X@X$X-X-X@XI.i.e.y.S.",
"dXCXUXKXZX{.t.9.v A <.T.A.J.A x 3 2 w P K.G.i.A.;X1.1.1.i i u t 9.oX+X$X>X*X+Xs.A.A.J.T.XXOX-X>X>X>X-X>X>X<X1X1X-X-XQ.J.U.L.G.p.",
"#XpXSXKXIXCX2Xh.c A 3.3.J 3.<.i.I.w.D w.P.#X-X<XqXS 1.1.2.2.7 v G #X*X1X1X1XuX,X;X!.Q.OXOXOX@X>X1X1X<X<X1X1X1X<X<XOXJ.R.XXI.p.G ",
"-X+XwXDXAXIXKXlX:XY.w.A 3.Z.G.U.e.i.G.L.XX>XaXaX@XA t 9 ;.6.4 z @X1X1XaXaX,X@X+XqXrXrXeXqX3X<X-X2X2X2X<X1X<X2X>X<XOXXXOXU.w.S.2X",
"OX!.W.W.DXAXKXIXJXlX#XL.I.+X#XL.Z.J.$X,X>X1XpXaXxXpX$Xz.x.x.E.iXdXxXmXuX>X+X#X1XXX-X-XOX@XeXaX3X1X1XeXuXaXuX3X1X-X@X@XXXP.P.7XKX",
"!.9XW.x.c.sXSXJXKXUXCXlX#XI.#X&X@XZ.G.XX#X-XiXxXxXmXkXtX7.l.NXlXbXbXbX1X6XxX1X>X1XaXaXaXuXuX3X2X3X3XuXuXuX1X>X@X@X@XI.G.=XbXHXSX",
"XXT.W.x.l.x..XwXnXUXKXKXDXfX5X=X4X=X$X1XuX3XiXzXdXZXxXaX.X%X,XpXbXbXbXpX5X2X2X>X3XeXuXaXuXeXuXaXqXqX1X2X2X2X@XQ.%XG.{.7XSXKXJXZX",
"XXT.E.v.l.6.k.E.W.fXJXFXFXJXCXlXoX>X>X=X-X1XuXyXxXiXuX,X.XE.%XyXuXpXxXxXpXaXaXuXeXqXqXeXeXeXqXeX=X=X-X;X%X!.!.Q.K.6XHXSXZXSXiXZ ",
"#XT.E.W.x.l.k.v.;.k.9XmXFXPXFXSXCXdX1X<XyXuXyXyXuX2XyX%XE.;.c.wX>X1XuXuXyXuXuXuXuXqX<X<X1X<X>X-X=X=XOX%X!.T.=X4XPXJXSXLXnXi.e g ",
"I.J.T.W.v.l.l.v.wX=./ ,.0XNXJXUXPXKXLXSXfX>X&X:X5X:X>X Xq.8 -.c.,XwXyXuXuXaXaXaX1X<X>X>X,X<X<X<X%XoXoX-XuXzXGXPXSXAXNXE.u v y.t.",
"XXXXOX%XW.l.7.l.I.2.,._ E ,.0XDXCXSXJXJXJXKXCXdX5X:XXX Xq.q.q.j.I.XX$X1X1X1X1X2XeX3X<X>X-X-X>X<XfXnXCXCXFXJXSXAXaX.X8 9 k s.t.U ",
">X+X#XOXW.l.7.7.c.2.,.! E _ ( / 0XgXAXFXFXFXLXLXIXIXCXnXwXwX%X@X].I.].XX#X#X=X2X2X1XuXpXxXCXHXLXJXFXCXGXJXDX0Xq.7 1 : 5 -.@X4X{.",
"+XL.S.I.E.x.7.7..X.Xd.;./ E E ! Q ~ :.%XfXAXAXDXAXKXKXLXSXSXLXLXUXKXJXSXSXHXLXIXKXLXLXKXHXJXSXCXZXCXAXwX0.7 7 7 i 8 5 =.,X6X#X&X",
"E.G.P.>XtX0XB.7.q.1X:Xa./ _ ) / / ( ! W / x.>X8XdXdXZXZXJXCXHXCXJXCXJXKXKXSXSXSXCXCXCXCXZXbXdX6X+X1.5 : 5 i B K v k &.z.uXzX7XyX",
"L.+X>XaXmXrXW.l.c.1.T.W./ #.&.P 2 4 o., E ! W Q *.b.;.q.q.E. X X*X*X>X1X5X1X1X1X%X-XQ.E.;.&.5 9 < 6 9 u B g I D -.7 a.aXaX6XiX6X",
"OX1XaXpXmXcX9Xx.tXc.q.>./ ,.N Y R = =.Q ) E ! / 6 5 > > > > : 5 > > : 1 1 1 : : < < : < : < < 6 k k v c B c S F 2.1. XpXuX6X6X2X",
",XaXcXfXxXNXgX/..X%Xz.7.#.,.-.F.`.- P &.~ ( > ( *.! ! E W E , W > > > < < < < < Q 1 5 8 8 8 k <.G B A V b 1.-.a.a. XyXpX6X6X5X&X",
"eXsXvXxXpXNXBX9XXXyX%Xz.l.*.*.k.[.T g [.m k >./ ( Q Q > Q ~ 6 5 6 5 5 6 6 6 6 6 7 u w.G u.y K C.Z B V b b 1.2.z.J.1XxXpXiXiX5X2X",
"pXsXcXcXxXnXNXtX%X,XoXd.9X6.,.,.k.-.0.{.d P 1.=.=.-.7 7 k j F z ^ ~ ~ ~ ~ 6 6 ~ j M S.I G e r f S V v b -.1.d.E.@XaXlXiXiXiX6X6X",
"lXpXfXcXxXxXxXsX0X/.W.d.eXT.k.k.q.z.;.z.N j g.w C m = w d = d d ^ ^ ~ ^ ^ ~ ~ ^ u c x G c <.N N b -.k -.1.0.R.OXuXaXpXaXdXiX6X7X",
"lXxXfXfXxXlXpXsXtX0X0X.X$XJ.1.q.+Xq.k.>.>.k.0.D 1.9.a Z P g N N &.i ^ ^ ^ ^ o.&.c V y B u =.k k =.=.1.<.e.H.OXeXlXpXpXpXdXpXiX7X",
"lXnXcXfXvXxXpXsXVX!./.0XW. Xd..XyX Xz.6.:.>.^ >.#.>.&.9.P P N N *.&.^ ^ ^ ^ ^ o.p p V p =.i :.:.5.1.R.G.G.+X@XcXxXfXfXfXpXdXdX7X",
"xXmXvXvXvXxXfXpXaXwX%X^.W.v.z.z.*X Xf.K.+X1.-.*.*.*.&.6.;.&.:.*.*.^ *.*.~ ;.8 =.&.&.:.k k 1.F L.P.{.I.L.I.$XaXnXmXxXxXxXlXlXpXiX",
"xXmXvXmXvXvXxXxXkXrX9X(./.W.z.z.E.+X].I.XX,X.X=.^ k.-.i =.=.&.&.&.&.^ &.;.&.2.i k -.q.k j.<.L.S.{.I.U.I.@XuXxXvXvXxXxXxXxXlXlXpX",
"vXmXnXnXmXvXmXxXcXsXtX9X(.W.z.z.z.a.j.qX#XI.].L.k .XE.1. X.XN =.=.-.-.-.N k E.h.H L.h.D &XI #Xt.D.S.i.I.,XxXNXNXvXvXmXmXbXxXlXlX",
"nXnXnXmXvXvXvXxXmXsXtXtX9X^.W.W.6.W.z.a.i.>X#XC m w.n z @X@Xv N F c L.|.w.XXf.S.S.:Xt.t.I.w.G.U u.f.U.+XqXxXNXNXnXnXmXmXbXmXbXxX",
"vXvXvXvXvXvXvXvXnXcXsXtX9X(.^.(.x.W.v.k.z.1.A S.n s e n #X#XM 9.G.A #XG.C ].U '.D.{.L y.y.w.w.f.P.I.+X1XpXvXnXmXnXnXnXnXnXnXbXbX",
"xXcXmXvXnXnXnXnXnXvXfXsXtX9X(.(.(./.x.>.W.q.v H z j c w.H.s.S b M M #XU.w.A F G w.9.0.0.s.i.i.I.I.].@XaXnXAXnXmXnXnXnXnXnXnXbXbX",
"mXnXnXnXNXNXNXNXnXnXnXkXtX9X(.(.^.^./.l.k.2.b e.a.d.a.a.4.5.d.a.d.1.S V <.1.d.N 1.N 0.0.s.s.I.K.K.XX1XxXAXAXnXnXnXnXnXnXnXnXnXbX",
"AXAXAXAXAXNXnXnXnXnXAXNXsXtX(.(.~.T.^.v.6.z.1.r.2.z.5.z.d.5.E.d.z.z.1.5.1.5.2.1.1.1.1.d.w.h.].u.I.>XxXAXAXmXmXCXnXnXnXnXnXnXnXbX"
};
