/* XPM */
static char *_89fac97b1974e9fe55b0abb29ac222aZsp7EfPmEurLrn8Z[] = {
/* columns rows colors chars-per-pixel */
"64 64 250 2 ",
"   c #14110F",
".  c #2B180D",
"X  c #29231C",
"o  c #38271A",
"O  c #36220D",
"+  c #1D2325",
"@  c #292827",
"#  c #352C28",
"$  c #2D322B",
"%  c #33322D",
"&  c #3B372C",
"*  c #2D2D31",
"=  c #343534",
"-  c #3A3A36",
";  c #36393A",
":  c #3C3C3B",
">  c #393735",
",  c #2E3231",
"<  c #1B2719",
"1  c #46150C",
"2  c #462619",
"3  c #53321B",
"4  c #6B3C12",
"5  c #453529",
"6  c #553925",
"7  c #453A37",
"8  c #58372E",
"9  c #663A27",
"0  c #6A392D",
"q  c #3E403C",
"w  c #3B4337",
"e  c #3F402E",
"r  c #42433C",
"t  c #4D4C3C",
"y  c #4A4738",
"u  c #564939",
"i  c #4B543B",
"p  c #56573B",
"a  c #51472C",
"s  c #69472A",
"d  c #774C29",
"f  c #67573A",
"g  c #7A5636",
"h  c #704D33",
"j  c #52613E",
"k  c #724E28",
"l  c #3D3E42",
"z  c #4C3D42",
"x  c #3E4444",
"c  c #434443",
"v  c #464944",
"b  c #4A4B44",
"n  c #4B4C4B",
"m  c #484648",
"M  c #544A46",
"N  c #4E5249",
"B  c #535443",
"V  c #5B5B43",
"C  c #53534C",
"Z  c #5C5D4B",
"A  c #585746",
"S  c #4C4C52",
"D  c #494653",
"F  c #534C54",
"G  c #4E5153",
"H  c #535453",
"J  c #5B5B54",
"K  c #5B5C5B",
"L  c #575658",
"P  c #625C4B",
"I  c #675846",
"U  c #775A45",
"Y  c #635C52",
"T  c #655C58",
"R  c #715D58",
"E  c #6E4E43",
"W  c #596248",
"Q  c #5A635B",
"!  c #66644A",
"~  c #786648",
"^  c #646253",
"/  c #63635B",
"(  c #696758",
")  c #786856",
"_  c #79765B",
"`  c #6A7456",
"'  c #595A63",
"]  c #655E64",
"[  c #715B73",
"{  c #5C6565",
"}  c #5E736A",
"|  c #646363",
" . c #686868",
".. c #756968",
"X. c #767369",
"o. c #696B73",
"O. c #786B79",
"+. c #697376",
"@. c #797977",
"#. c #68736C",
"$. c #88562A",
"%. c #945B2B",
"&. c #875A37",
"*. c #965E34",
"=. c #834D2D",
"-. c #8A653A",
";. c #9C6A3B",
":. c #976538",
">. c #9C6830",
",. c #A36C3B",
"<. c #A46A35",
"1. c #A9733B",
"2. c #B5773B",
"3. c #A56628",
"4. c #935321",
"5. c #835C47",
"6. c #8E5C51",
"7. c #896747",
"8. c #976A45",
"9. c #9A7249",
"0. c #866954",
"q. c #88745A",
"w. c #977757",
"e. c #907153",
"r. c #A46C43",
"t. c #A47344",
"y. c #AA7544",
"u. c #A47A4D",
"i. c #AC7B4C",
"p. c #A7764A",
"a. c #B37C4C",
"s. c #B67B45",
"d. c #A77B55",
"f. c #B27D53",
"g. c #A46E59",
"h. c #857B6B",
"j. c #957A66",
"k. c #867978",
"l. c #8A6E6B",
"z. c #A97A6D",
"x. c #7F817F",
"c. c #BE823F",
"v. c #AA824B",
"b. c #B9834A",
"n. c #AB8459",
"m. c #B38454",
"M. c #B3855B",
"N. c #B58A5C",
"B. c #BB8B5B",
"V. c #BA8854",
"C. c #BD925C",
"Z. c #9C8566",
"A. c #85837A",
"S. c #978877",
"D. c #AA8865",
"F. c #BC8D62",
"G. c #B58B67",
"H. c #BC936B",
"J. c #B99467",
"K. c #A88A76",
"L. c #B78C74",
"P. c #AA9577",
"I. c #B99877",
"U. c #AB9266",
"Y. c #B8A27C",
"T. c #8E815F",
"R. c #C5894A",
"E. c #C68D55",
"W. c #CA9359",
"Q. c #D4985A",
"!. c #D29352",
"~. c #C39363",
"^. c #C2956C",
"/. c #C49B6D",
"(. c #C99B6B",
"). c #CA9865",
"_. c #D69C64",
"`. c #C49C73",
"'. c #CB9D74",
"]. c #C49A76",
"[. c #C99368",
"{. c #CAA26D",
"}. c #D9A369",
"|. c #CCA373",
" X c #CCA37A",
".X c #C8A579",
"XX c #D3A374",
"oX c #DCAC7C",
"OX c #D8A878",
"+X c #DCB07A",
"@X c #E2A86B",
"#X c #E2AB78",
"$X c #E7B47A",
"%X c #787686",
"&X c #736C84",
"*X c #867989",
"=X c #78858B",
"-X c #858685",
";X c #8C8891",
":X c #B69B87",
">X c #B09586",
",X c #BAA588",
"<X c #B8A896",
"1X c #BFB18E",
"2X c #BDB4A5",
"3X c #C59985",
"4X c #C9A787",
"5X c #D5AB86",
"6X c #D9B489",
"7X c #C7AA95",
"8X c #CBB397",
"9X c #D8B997",
"0X c #CFB08F",
"qX c #E5B587",
"wX c #E3BC96",
"eX c #E7B286",
"rX c #C8B8A7",
"tX c #D2BBAC",
"yX c #E5BCAF",
"uX c #DDC198",
"iX c #E5C499",
"pX c #F1C68C",
"aX c #DAC4A9",
"sX c #D7C6B7",
"dX c #D2C8B1",
"fX c #E6C8A7",
"gX c #F3CAA9",
"hX c #ECD4AB",
"jX c #E7CCB5",
"kX c #ECD3B5",
"lX c #EAD6BA",
"zX c #F4D8B9",
"xX c #F4D6AD",
"cX c #FFE2BC",
"vX c #D9CDC1",
"bX c #EAD9C7",
"nX c #F3DDC4",
"mX c #F6DBC5",
"MX c #E7D6CF",
"NX c #EAE3CC",
"BX c #F6E3CB",
"VX c #F6E9D8",
"CX c #FAF0DB",
"ZX c #EEE3D4",
"AX c #F8ECE4",
"SX c #FBF3E3",
"DX c #FDFBEC",
"FX c #F9F6EB",
"GX c #FDFDF3",
"HX c #FBFCF5",
/* pixels */
"D l H v r c l o.' S v v b c r t v N N v - $ @ @ ; = r t M X.7 t a u R M 5 t 7 # # < < $ $ % # X @ @ @ $ = -X-Xx.@.X.X.X. .| | K ",
"l l H b v S S %Xo.+.{ H G x r K c x - % @ @ % > c r u I A l.8 f ~ I ) I u I f u u y r w $ @ * = @ @ @ @ c -X-X-X@.X.X. .L H H G ",
"l : N v v S L %Xo.%Xo.{ ' c ; n ; ; ; > - 7 y M y u f 0.q.K.e.Z.U.w.D.D.n.n.9.7.0.I a & 5 & @ @ @ @ +   K -XA.@.@. . .K H H J H ",
"c r b c m S L &X;X%X&Xo.{ H c l - : 7 y M I I I U 7.7.G.].5X XoX.X|.5X5XoXXX/.N.D.D.q.~ I 7 # $ @ $ +   @.-X@.@.X. .| K H J | | ",
"b v r c n G ' o.;X&X&Xo.| ( Y 7 M M I ) q.Z.K.L.H.`.J.oXqXeXoXOXoXqXeXOX}.}.OXOX#X6X.XG.D.7.a a & % X @ -X-X@.@.@.#. .| H H L L ",
"N b q q m S S ' ;X&X[ ] I 0.Z.j.q.j.D.I. X6XqXqXXX#XOXeXqX#X}._.XXeXOX_.).).}.#X#XOX(.^.'.H.w.~ u 5 X - -X-X@.@.X. . ./ H n H H ",
"b b : : c c m G ] &X*X*X:X4XI.L.`.|.OXoXOX}.Q.E.).}.$X$XeX#X_._._.@X).W.Q.E._.OXXXXXOX(.~.F.H.J.q.f o J @.-X@.@.| / | K C C J L ",
"r c : x m m G L L &X[ [ 4X6XOX6X_._._.Q.Q.!.!.!.Q.@XpX$X#XOX_.Q.@X}.s.b.E.b._.eXqXOX^.f.r.r.f.d.I.0.a X.@.-X-X@.Q K Q K H H Q | ",
"q c c : n n ' G n  .&X&XO.k.>X7X5X6X6XXX).R.R.!.Q.qX@X@X_.@XR._.#XQ.W.R.s._.wXOXf.g.=.&.d =.&.d.U.D.q.q.h.k.A...{ #.| L L ] | K ",
"- : c c H G K S b ] O.O.O.k.S.K.3X].4XqXqX_.E.Q._.$X}.}.Q.Q.E.@X@XE.s.E.OXeX^.g.=.d 3 1 1 0 &.9.U.U.q._ h.k.k.X.} #.#.{ | o.o.| ",
": : - : n m L n r C | ....k.k.k.K.L.I.].oX$X@X@X}.@X_.Q.R.R.E._.s.Q.}.#XeXB.&.8.6.0 2 1 1 9 9 5.n.P.q.) ..X.X. .Q Q { {  .+.o. .",
"n c - : n v L G y i Z ^ ( ..O.O.K.>XK.n.(.$X$X}.@XQ.Q.Q.R.c.R.R.b.}.OX#XoXd.=.5.6.3 2 O 1 8 0 5.w.P.q.I ( |  . .Q L L '  .o.o. .",
"n m n n K H K H i i W ^ ^ T ] o.S.>XI.'.5X+X}._.@X!.Q.Q.!.R.c.2.W.Q.}.XXOX].d.7.5.s 6 . . 0 E 5.9.K.0.A Y / | #./ | | | o.....[ ",
"n n n n L H { K y i W ( ^ J K ] k.:X0X6XqX$X}.W.Q.E.!.Q.Q.!.2.3.W.W.}.OX|.OX4XG.g.5.s 2 1 3 U 0.w.j.I u C K / | K ]  . .o.......",
"n S n q n v Q L y i Z ( / Z Z Y ) >X0X'.XX$X@XW.Q.Q.E._.!.Q.2.3.Q.W.W.W.(.OX'.d.8.g s s 3 2 e.Z.w.0.6 5 N J K H S ' +.o.{  .....",
"m G H m n v H v A A J / T A p p ^ j.P.F.)._._._.Q.}.!._.E.Q.2.3.E.W.E.b.a.u.9.8.%.8.-.g 9 9 D.Z.Z.~ 5 & N T T M L +.=X+.}  .| T ",
"m c : = q > n m b b t ( ( / B ^ ^ q.Y.H.^.[.).R.W.W.W.V.).#X<.2.E.V.m.a.i.,.,.,.:.t.y.y.t.9.e.e.~ a . X ] ] T T o.+.+.} / ^ ! ! ",
": x c v N r n x v t t ^ ( / Z ^ ( q.,X XOXXXW.1.b.R.s.s.V.V.<.2.V.V.V.a.y.t.a.b.F.B.m.y.t.u.n.Z.w.~ y & T ] K J |  .{ Q Q Z Z W ",
": q q r n r n c b t B Z ( ^ Z Z ! q.0X6X5XoXOXV.<.2.%.<.<.1.y.y.V.B.E.B.B.B.~.).OX(.B.p.u.M.H.I.I.K...M T K L F T Q W W Z Z V V ",
"x : - - v : n c t t Z Z X./ Z B P q.9XiX6X5XoX~.>.3.4.%.%.m.B.p.~.B.B.~.(.'.XXXXOX^.m.p.i.N.H.I.4X,XS.T K F L J Y Z A V Z P Z W ",
": - : r C c G n : r i B  ./ Q A P ~ Y.iXgXgXiX Xp.%.%.<.1.(.^.d. X/.H.`.'.|.OXqX6X(.B.a.a.N.G.J.I.P.S.Y C n J | ! Z p p W ^ ^ W ",
": ; ; q C b L H c r y b K J C A P ! P.0XgXfX9X0X`.8.*.,.p.'.H.H.4X4X4X0X5X XXX+X{.B.y.,.,.t.v.n.n.w.) M b n ( ..! V p p V ! Y J ",
"l ; = - N v L L S n v H K L n B P ! Z.,X8XZ.U U K.G.p.f.d.H.I.z.q.j.K.L.].'.~.V.i.,.%.$.$.$.$.-.9.7.~ y t Z ..( P W j j V P Y J ",
"; = - b K b H n D S n  . . .C A b p T.1XaXj.o . E I.^.'.F.H.L.g o 2 3 6 7.G.m.;.m.y.,.<.*.%.$.$.9.e.~ y t ^ X.Z W W W j W P Y J ",
"c c r c b b n n c c : m n o.;X' t y f :XjX:X#   2 7X].{.H.4X7XM # X     h.fX6X{.M.p.r.,.:.%.$.$.-.e.) A ^ _ ^ P A V p f ! P A ..",
": - - r c c m n * c c : = m +. .C A f w.0X8XU 2 0 3X5X|.|.9X3XE 5 .   5 P.fX|.V.~.f.;.*.$.$.$.*.-.0.) y t ! ! V V V p V V P ^ J ",
"c : - : r q : c : m : - ; m ' ' N M f ~ G..X4X9X].`.5X|. X'.L.L.>X0.U I.9XH.m.E.a.y.,.:.:.:.;.;.-.g I B t V p p Z B V V A  .@.K ",
"c : : q q : : l % b c r % = l ' ' M I ~ D.n.d.N.iX`.6XqX5XM.f.XXwXwX.XH.d.y.a.<.*.*.:.,.r.t.t.u.7.s I ! V p p Z W V A A / @.@.{ ",
"- - - : r r c m - b r r = = * G ' F M 8 7.d.^.XX6XoXwXeX'.p.E.XX6X^.9.t.r.%.<.%.$.%.%.*.;.t.u.u.8.h I I t i p ( V Z A J @.@.{ G ",
"; = - q r q c m n c % - 7 F ; S o.' ..) q.D.].wXiXqXeXeX~.t.).OXXXXXN.t.,.,.%.4 =.$.:.r.i.n.n.d.7.U U u a p V V p Z J  .x.o.n m ",
"- - : r r : : l > - > 7 % m l ] *XL 7 I ) P.0XxXgX5X'.oXB.a.F./.5XOX'.^.i.$.4 $.%.,.m.~.).^.F.M.9.7.I u p p t t V ^  .X.o.Q n v ",
"= - : r r r c m : - - b r | L o.K J Z I I P.8XfXgX'.d.r.%.N.`.].]. XOXN.u.:.$.u.V.~.(.XXXX'./.J.G.7.u u f p a Z ( ( @.X.H b b w ",
"; = - c c : : : ; r t B M y r i Z Z p I Z.I.4X9X9X5XG.d.f.F.].'.]. XH.u.8.u.N.J.E.V.V.E.E.V.v.v.9.h u p y t P ( X.o.%X%X' c c c ",
"= $ , - m m q ; m r e y B A B i b ^ X.S.7X8X9XyX9X0X.XH.H.^.H.G.I.D.d.M.^.|.|.{.).).).).W.V.v.v.-.h u u A P ) X...O.%X%X' c c c ",
"@ , = = = ; : x * - i A B i p ! P h.,XrXaXaXaXjXfXaX9X0X0X5X4X].n.D.G.F.F.B.C.(.b.a.1.1.y.1.1.,.-.g f A P I Y ..k.*X;X;Xo.K K ' ",
"@ = ; = ; c S H ] J B i i y a a j.I.9XzXzXfXjXnXBXBXlXaX8X4X:XI.4X5X5X'.'.OXeXoX~.a.<.>.<.1.1.<.g g I I P P R l.k.*X*XO.L c : l ",
"= * , l H | K n : w y i p ! ~ q.B.(.qXxXxXfXkXBXCXCXVXZXnXmXBXmXfXfX6XOXXX#XeX#XeX_.R.2.1.2.1.,.g ~ U I ! I R ..-X*XO.| H N b n ",
"l : c S L S l = $ e p ! ! _ Z.Y._.W._.eXwXfXkXBXGXGXDXSXCXVXBXnXzXfX6X5XXXC.V.E.).W.E.s.1.<.>.;.&.7.~ I I p I T Y T H b B A Z J ",
"l l m m ; @ * l / V p ~ P.8XhXxX$XW.E.XX6XaXNXCXHXGXGXGXGXDXDXSXCXfX0XqXpXqXXX~.b.b.b.2.1.1.9.8.d h f f p ! ( ^ P ( J N V V i N ",
"; * @ @ + @ m o.A.S.Y.9XkXzXzXxX$XW.W.6XfXnXSXFXHXHXGXFXDXDXSXCXbXkXhXiXpXqX+XXXE.V.2.1.1.y.t.-.&.h f f p ! ! A ! X.` W ` W p B ",
"X + + + x  .@.k.P.8XkXzXzXzXxXhX+Xs.a.5XkXNXFXDXHXGXGXFXSXCXVXVXxXxXhXiX5X|.(.(.V.b.b.s.<.<.;.-.s d U f p f f I ! ! ! ! ` _ ` W ",
"    @ L  .K ( A.aXzXBXzXhXfXiXuX|.i.m.wXzXCXDXFXAXSXVXBXBXnXzXkXhXiX6X.X/./.(.{.C.t.<.y.s.y.9.-.s U q.q.~ ! f f I ~ ) ) _ _ X._ ",
"K H G H / h.<XnXzXzXzXfXwX9X6X9X5XJ.'.gXBXCXSXAXVXBXnXkXhXhXiXwX9X6X6X X/.J.C.C.^.p.:.:.:.;.:.-.h U j.h.X._ I f I I ) ) ) _ _ _ ",
"L  .#. .h.,XaXfXzXzXfXiXwX6X5X9X9X5XwXmXBXZXVXAXCXVXBXzXgXiXqXOX XoX5XoX|.J.n.v.`.^.M.8.*.8.9.-.7.0.l.l.k.-X@.X...R R ) ) ) ) ) ",
"H N J h.<XjXzXcXzXgXfXiXwX6X5X0X9X9XfXmXmXbXVXAXDXSXCXBXkXfX6X]. X X|.|.{./.J.N.G.J.G.u.8.9.9.-.;.-.0.R [ %X%X;X..| Y Y P I A A ",
" ./ X.>XaXzXxXfXwX9X5X5X6X5X4X0X9X9XjXzXmXmXVXDXGXDXSXVXbXjX8X4X.X`.I.`.`.`.H.J.G.d.8.8.7.7.8.8.;.:.7.f z F ' &X@.o.| / / / ^ Z ",
"vXvXsXsXlXmXzX9X6X5X^.^.'.'.'.5XfXjXlXlXmXmXbXVXFXDXFXCXZXlXaXtX.XY.Y.Y.].I.L.D.J.w.7.8.8.8.9.u.i.t.8.g a 7 l D L L n r y M b b ",
"vXbXVXVXBXmXzXfXgXwX'.~.~.H.].3XfXkXlXlXmXmXbXNXFXDXDXSXVXNXnXkX9X0XY.I.I.G.D.D.7.7.8.9.9.w.u.9.d.8.&.s a a & ; n G M 7 r n C n ",
"yXmXjXmXbXjXBXjX].`.M.8.&.w.I.9XjXkXnXnXjXjXZXSXGXAXFXVXAXZXNXsXjXdX1X,XI.D.w.w.g g -.d.m.i.p.i.a.y.:.d 3 o # & 7 H H L M m n x ",
"yXyXtXyX8X8XkXjXD.d.d.D.G.4X9XjXnXzXnXlXjXbXSXDXAXVXMXAXVXMXZXZXbXdX7XY.D.7.7.7.-.-.9.u.i.t.t.t.y.t.;.k 3 o # & M F n H L L L v ",
"z.:X3X9X8X4XyXyXL.D.G.5XiXfXkXnXBXnXnXNXNXVXVXMXvXAXZXFXZXZXAXMXbX8XP.Z.e.g d &.-.;.9.p.u.i.i.m.i.i.9.g 6 o # & # 7 c n M F { Q ",
"3Xz.g.L.3X3X4X3X8X4X0X9XgXkXlXnXlXnXVXCXSXSXbXdXsXVXVXAXMXMXVXMXtXP.0.U g d d =.$.;.p.v.v.C.~./.F.J.n.-.6 o # 7 5 b m c - - c x ",
">X>Xz.z.g.g.L.9X9X9X9X9XiXfXlXnXlXBXVXCXSXDXVXsXbXrXvXMXvXtXsXMX:Xq.h h g d d =.:.p.m.V.C./.(./.|.{.J.9.h 5 & 7 m M 7 : - - : , ",
">Xj.U h 6.g.L.3X7X9XiX9X9XfXkXnXkXlXBXCXSXSXNXsXtX:XsXrXtX7X>X7Xe.5.g g =.=.&.:.t.v.B.C.^.{.(.H./.(.J.w.E 7 & & & r : 7 7 7 c q ",
"<X>X0.0 h 5.j.:X7X8X9XiXwXuXfXzXhXkXBXCXCXZXsX7X:X>X7X:XP.K.w.7.&.&.&.&.&.-.8.p.t.p.m.C.(.{./.H.N.N.u.7.h 5 # # % v b c > # : ; ",
"2XrX<XK.z.K.K.<X7X4X0XwXwX9XfXkXxXhXlXVXVXbXaX4XI.K.Z.K.e.e.7.8.7.-.&.&.&.8.p.i.t.y.v.C./.H.J.G.n.u.-.d 6 # @ @ % q - r 7 7 c ; ",
"rXtXrX:X>X,X,X,X,X:X9X5X5X6XfXkXfXfXfXhXhXfX0XI.K.w.7.g &.7.9.8.8.8.8.8.8.9.d.N.f.i.i.m.V.B.m.i.i.:.d 3 O . X $ % - : - & - : - ",
"<XtXtXrXrXrXrX7X4XI.5X'.'.5X9XfXiXuX9X9X9X0X4XI.d.7.g d g &.8.*.8.9.u.n.B.J./.'.~.B.f.a.a.f.i.p.t.*.d 3 O . X % % > - - - : - - ",
"-X2XtXrXdXsXtXrX0XI.I.H.F.5X9XfXiX6X5X.X.X].I.L.w.g d &.&.&.*.8.8.p.m.F.^.'. X XXX~.m.p.t.t.t.r.;.%.d 9 2 . X $ % & - - - - - = ",
"..>XrXrXdXdXrXrX4XI.G.M.d..X5XwXiX6X.X.X`.`.H.G.G.8.&.u.9.:.&.:.,.y.f.B.B.F./. X/.J.m.i.t.;.;.,.:.$.d s 3 o X @ # % - : - - = = ",
"T ;XrXrXtXtXrXrXI.D.d.u.9.H.4X9X6X6X X{.`./.^.^..Xn.9.M.8.&.=.*.*.<.y.b.b.m.F.'.N.N.N.m.t.:.*.:.*.=.d s 6 o X @ @ % - : - = = = ",
"A h.<XrX8X8X8X7XG.d.u.9.9.H.4X0X5X X/.H.H.H.^.^.^.M.u.M.&.$.$.r.*.*.,.a.a.y.i.~.n.m.N.m.p.:.%.%.$.d s s 5 o X @ X @ & : - = = = ",
"b P S.,XI.I.,XI.G.w.u.8.d.`.5X4X`.H.G.G.G.F.N.n.9.u.u.M.$.$.%.i.r.:.>.s.b.,.,.a.M.m.m.B.m.;.$.$.=.s 9 6 o O X X X @ # - : - = = ",
"y y ) Z.Z.D.I.L.G.9.9.8.d.`.5X4XJ.G.G.G.G.M.u.8.d 8.u.m.=.=.$.r.f.:.%.s.b.1.1.s.F.m.m.B.m.t.-.$.$.s 3 2 O . X X @ X @ = r r - = "
};
