/* XPM */
static char *e05f45d105fa443af076aa8057856ad0nmYkHXarpXubWMFP[] = {
/* columns rows colors chars-per-pixel */
"64 64 256 2 ",
"   c #0D0B07",
".  c #130D09",
"X  c #17120C",
"o  c #1A1512",
"O  c #1B1816",
"+  c #241D1B",
"@  c #251B17",
"#  c #31170A",
"$  c #28231B",
"%  c #3A271B",
"&  c #343314",
"*  c #1C1D24",
"=  c #1E2128",
"-  c #2B2523",
";  c #2C2C2A",
":  c #292724",
">  c #332E2B",
",  c #372B25",
"<  c #32312D",
"1  c #3B332A",
"2  c #353532",
"3  c #3A3532",
"4  c #3B3A35",
"5  c #3E3D39",
"6  c #2F3332",
"7  c #201E29",
"8  c #47372B",
"9  c #443C34",
"0  c #463A36",
"q  c #513C38",
"w  c #52382B",
"e  c #4A281C",
"r  c #3C4234",
"t  c #5A462C",
"y  c #494137",
"u  c #44413C",
"i  c #4C443B",
"p  c #4F493E",
"a  c #474036",
"s  c #52453D",
"d  c #514A3F",
"f  c #584937",
"g  c #4F4D2D",
"h  c #6A553A",
"j  c #484541",
"k  c #4D4A44",
"l  c #4A4946",
"z  c #534541",
"x  c #534C42",
"c  c #5A4D44",
"v  c #534C4A",
"b  c #5A4947",
"n  c #555146",
"m  c #5B5146",
"M  c #54524C",
"N  c #5B544B",
"B  c #5D594E",
"V  c #565552",
"C  c #5C5651",
"Z  c #5C5B53",
"A  c #5F5E59",
"S  c #58565B",
"D  c #564C55",
"F  c #644C45",
"G  c #61544B",
"H  c #635B4D",
"J  c #6A5D4D",
"K  c #655647",
"L  c #755546",
"P  c #635652",
"I  c #635C53",
"U  c #6A5D54",
"Y  c #635E59",
"T  c #6B5B58",
"R  c #725E5A",
"E  c #644E50",
"W  c #6D6149",
"Q  c #646056",
"!  c #6C6355",
"~  c #65625B",
"^  c #6B655B",
"/  c #6C685E",
"(  c #686850",
")  c #716455",
"_  c #71665B",
"`  c #736A5C",
"'  c #7A6C5D",
"]  c #776954",
"[  c #7B7257",
"{  c #6F6B49",
"}  c #6B6562",
"|  c #6D6A63",
" . c #6B6966",
".. c #746462",
"X. c #736C63",
"o. c #7A6E63",
"O. c #746E6A",
"+. c #7A6A69",
"@. c #757065",
"#. c #7C7264",
"$. c #75726B",
"%. c #7B746B",
"&. c #7D796E",
"*. c #7F7865",
"=. c #7B7671",
"-. c #7E7A73",
";. c #7A7876",
":. c #736E6F",
">. c #5D585C",
",. c #845E4F",
"<. c #87695A",
"1. c #847659",
"2. c #8C744C",
"3. c #816C68",
"4. c #817565",
"5. c #81756B",
"6. c #847A6C",
"7. c #8A7D6D",
"8. c #887965",
"9. c #837C74",
"0. c #8A7E72",
"q. c #837E79",
"w. c #857874",
"e. c #927569",
"r. c #91865B",
"t. c #AB995B",
"y. c #8B826A",
"u. c #958469",
"i. c #858175",
"p. c #8C8274",
"a. c #85827A",
"s. c #8C847B",
"d. c #8E897E",
"f. c #8E8A74",
"g. c #928475",
"h. c #92857A",
"j. c #948A7C",
"k. c #9A8C7C",
"l. c #968975",
"z. c #999378",
"x. c #969568",
"c. c #A8986C",
"v. c #AF9976",
"b. c #B7A97A",
"n. c #B2AD78",
"m. c #95A179",
"M. c #C8B478",
"N. c #D5B977",
"B. c #C7AE75",
"V. c #CFC07B",
"C. c #8B8681",
"Z. c #8D8982",
"A. c #878681",
"S. c #938C83",
"D. c #9A8E83",
"F. c #948E89",
"G. c #958984",
"H. c #969085",
"J. c #9B9284",
"K. c #96928B",
"L. c #9C948B",
"P. c #9E998D",
"I. c #9F9B80",
"U. c #9E9B93",
"Y. c #9F9691",
"T. c #A29484",
"R. c #A2968B",
"E. c #A49A8C",
"W. c #AB9D8D",
"Q. c #A59C86",
"!. c #A49D93",
"~. c #AA9E93",
"^. c #AA9E9A",
"/. c #A39894",
"(. c #B39B88",
"). c #ABA38C",
"_. c #B6AB87",
"`. c #A6A095",
"'. c #ACA294",
"]. c #A6A299",
"[. c #ACA49B",
"{. c #AEA89D",
"}. c #B2A595",
"|. c #B2A59B",
" X c #B3AA9D",
".X c #B9AB9B",
"XX c #B8AA95",
"oX c #BCB39A",
"OX c #BBB687",
"+X c #AEA8A2",
"@X c #B4ACA3",
"#X c #BAAEA3",
"$X c #B5ABA7",
"%X c #B6B1A4",
"&X c #BCB2A4",
"*X c #BCB4AA",
"=X c #BEB8AD",
"-X c #B6B2A8",
";X c #BDB9B3",
":X c #C7BB8B",
">X c #C4B79B",
",X c #CCB892",
"<X c #C3B4A4",
"1X c #C1B6AA",
"2X c #C3BAAD",
"3X c #C9BBA8",
"4X c #C3BCB3",
"5X c #CABEB3",
"6X c #C5B9B6",
"7X c #D0BFAB",
"8X c #BFC1B3",
"9X c #CDC287",
"0X c #D9C98A",
"qX c #D6CA96",
"wX c #D4D193",
"eX c #E5D698",
"rX c #E2CF8E",
"tX c #F1E29D",
"yX c #CBC2AC",
"uX c #D8CAA9",
"iX c #D9D2A5",
"pX c #C5C1B5",
"aX c #CCC2B5",
"sX c #C5C3BA",
"dX c #CCC5BB",
"fX c #CDC9BB",
"gX c #D1C5BB",
"hX c #D5CABC",
"jX c #D5C8B6",
"kX c #DFD3BB",
"lX c #E2D5BA",
"zX c #EAD9A4",
"xX c #ECE3A9",
"cX c #DFE2B7",
"vX c #CDCBC2",
"bX c #CBC5C4",
"nX c #D4CCC2",
"mX c #DACDC3",
"MX c #D4CBC8",
"NX c #DCD2C3",
"BX c #DBD4CA",
"VX c #D9D6C9",
"CX c #DAD2D6",
"ZX c #E5D9C8",
"AX c #E6DCD3",
"SX c #EBE4C9",
"DX c #EDE3D3",
"FX c #E9E4D8",
"GX c #F2ECDD",
"HX c #F3E7D7",
"JX c #F7EBD9",
"KX c #F3EEE1",
"LX c #FBF4E5",
"PX c #FDFCEC",
"IX c #F8F3E7",
"UX c #FFFEF1",
/* pixels */
"d.j.S.d.s.p.d.S.s.d.j.S.j.j.S.D.d.D.D.S.S.S.S.S.S.D.H.H.D.D.D.D.d.S.Z.Z.H.9.S.&.d.s.s.d.Z.d.s.s.d.d.p.p.d.G.S.s.d.d.d.d.d.d.d.d.",
"/ X.@.%.%.%.@.X.&.9.p.s.p.p.d.S.L.L.L.L.E.!.!.!.!.`.[.{.@X%X*X=XpXpXpXsXvXpXdXpXvXdXfXnXVXVXVXVXBXBXBXBXBXBXMXdX4X5XdXfXnXmXBXBX",
"9 9 9 i x n p a 9 y i p i i p x n N N N N I H N N N N B I Y ^ / C Q ~ ^ ^ Q C &.$.X.| X.@.@.@.@.$.%.%.%.;.-.;.$.%.%.-.9.a.s.d.Z.",
"d i y i x N n x x x N B B B B H ^ X.X.X.` / ^ Y I I I I B H I Y B C B Q Q Q k %.Q B n n n x x x n n x x N I ~ ~ ~ ~ ~ ^ / | | | ",
"i y 9 9 y i i i p x x N I Y I H ` @.%.%.X.X./ ^ ^ ^ ^ ^ ^ ^ ^ ^ ~ B n Z ^ / n &.X./ Q Q Q Q Q ^ ~ ~ ~ I ~ ^ | | / } | X.@.$.$.$.",
"i i k p i i i i y y y i x x x i i x x x x x x x x x x x x x x x n n N N N n C d.I N x x x n n N n N C Z I I Z B I Q ~ ~ ^ ^ ^ / ",
"y y i i i i i i k k k i i i x n x p i y i x x x p d d p p d x n x N B N x p &.`.B n k p k p p x k n C I I Q I B A I I Q Q ~ ~ Q ",
"y y a y i i k x y i i i y i N ^ ^ B x i x N N n N N N N B Y ^ X.X.Q N N ^ ^ U.{.I N n x n n n N n V Z Z Z Z Z B Z A Q ~ / / / / ",
"9 9 9 a y i i i i y i n c c ` D.@X-X^ ^ x X.9.P B B 9.%X XaXVXVX=X*XL.%.%.D.dXH.| / Z Z Z B Z ~ ~ A Z A ~ ~ A Z Y Y Y ~ ~ ~ ^ / ",
"9 a y y y i x n N I I c x N N N &.d.!.4XL.L.|.0.$.P.[.H.`.mXUXnX{.@X*XfXnX=XnX=X~ ~ / / / ~ ~ A n A / / ~ ~ ~ Y ~ ~ ~ / ^ / / / ",
"y y y y 9 a i x x p k x N N N I ^ d.@X1X4X@X5XAXvXKXFX XR.d.VXnXnXVXBXKXKXvXFXIXa./ Q / ~ Q ^ ~ ^  .| / ^  .X.|  . . . .| X. .| ",
"i i i i y y i d x n B ^ ^ Y } =.!.2XaX@X5X2X4XUXPXPXLXdXE.N !.GXUXUXIXFXsXpXKXUXfXi.~ $.$.| X.| $.$.$.O.O.$.$.=.$.$.$.$.$.$.$.$.",
"i y i x x x x x N &.L.L.L.@XgXBXDXAXHXmX2XmXBXPXPXLXGX2XH.6.D.BXPXUXUXFX%XdXIXFXUX@X9.%.X.X.9.=.^ | $.;.=.X.$.9.;.;.-.-.-.-.-.&.",
"d i p x x d x N S.D.s.X.m c J ' |.aXmXjXhXDXAXPXPXPXKX1Xg.J.i. XPXPXPXFXpXAXLXHXFXnX1X{.L.L.G.=.s.=.+.%.=.=.%.=.;.;.;.-.9.9.9.9.",
"x x x x d p N ` R.X.s 8 % # # % w 3.k.T.jXhXhXJXGXPXGXaXj.J.p.'.IXUXKXAXmXZXgXaX{.L.5.Y N T +.%.L.F.s.=.-.a.q.%.-.q.9.a.a.a.a.a.",
"x x n n x N @.D.R s 8 f ' u.8.] f w K K g.E.ZXDXGXPXGXgXJ.k.k.R.mXPXFXZXZX5X4.) c i y N T z 9 x } L.@XL.9.9.p.q.q.a.a.a.s.s.Z.d.",
"d N x n n N %.6.q h 2.t.V.0X9XM.v.2.t f } :.R.uXHXLXAX1X).p.7.'.yXPXLXgX>Xy.y l D } J W 1.4.[ W d d /.D.i.i.H./.L.d.a.a.%.$.-.a.",
"N n x n n d ^ ! t 2.:X9XeXiXqXxXqXb.r.f 0 } 0.v.ZXLXAX&XT.8.8.}.SXLXAX#X7.f 3 S  ._ r.qXiXlXiX:Xz.' ) |.%X8X-X6X@X].!.!.S.-.| Q ",
"N x N n n d U f 2.B.tXeXOXr.] z.cXqX:X2.w b X.T.>XDXZX.Xk.8.g.3XSXDXnX|.! 8 Y ;.W n.9XwXzXcXcXxXqXb.L }.dXvXvXBXdX4X5XdX=X].Z.%.",
"x x I k x N _ f c.eXrXwX{ & O ; m.9XeXc.h 8 P ~.3XHXZX<XQ.8.u.7XSXJXNX|.P z w.O.x.0XtXeXiXz._.SXxXzXv.(.MXbXBXBXBXfXvXnX5X*X!.D.",
"N x B x n m ) K N.eX9Xn.g k ; * ( iXtXB.2.8 T /.3XZXlX3X}.u.k.jXSXSX5XH.N C s.T ,XqXeXiX] $ < Q wXeXqX(.MXCXvX2XdX4X4X4X=X=X4X*X",
"/ B N C N m f J N.rX0Xx.& O.; ; x.xXeX0Xu.8 G C.<X7X3XXXW.l.k.<XAXkX'.%.v v 5.4.B.zXeXuXy 7 = S n.9X0Xv.~.CX;XpX@X].!.].[.*XdXdX",
"X.` C I G J t h N.rX9Xx.1 u . 3 OXqXN.M.1.1 b +.W.XX}.T.g.7.g.k.ZXZX'.X.D 0 s 1.0XtXeXiXC * = ;.m.9XrXb.4.MX;X2X+XL.Z.a.s.K.].].",
"! 9.^ C N 4.t t B.eXb._.( . X / _.M.M.c.h i _ ..4.p.j.8.#.g.Q.J.|.aX'.^ D 0 1 [ N.N.rXOXn ; l r f.:X0Xb.] bX$X9.+XK.9.%.-.K.[.[.",
"/ / i.^ G 4._ G h c.:X_.r.g h y.l.z.j.g.5.s P R 1.7.] 8.k.8.g.XXk.|.D.9.0 N d K t.0XeXn.x.& ; S c.9X,Xz.6.2XfXS.-.C.-.=.H.U.P.].",
"X.Q &.%.p.6.5.` t t t h [ [ ( ` k.).<XT.R.G ^ z K _ _ X.s.o.6.E.g.6.@.N i G o.) 2.c.b.iXn.g a i.c.,Xy.) J.2X!.].Z.K.Z.S.].[.U.U.",
"9.X.@.%.L.o.o.) U F c K ! 6./.#X}.1X3XJ.D.U o.s ^ | O.Y =.^ ^ 9.0.j.P x ` 0.g.<Xj.g.W [ y.z.y.6.u.8.J 4.~.@XH.H.U.K.C.Z.K.U.U.U.",
"&.9./ %.H.%.0.#._ P _ w.s./.#X+X<X&Xk.7.' ' p.#.%.~ N z T T G o.U D.` H X.h.0.XX6X$XJ.g.J g f H P q P R.L.!.J.%.Z.a.s.S.F.H.K.F.",
"%.9.I 6.9.` o.o.p.` #.p.h.~.#X'.R.h.o.j.j.g.T.k.%.U f F L L F ] c o.E.6.' 7.T.U ^.[.@XL.h.q.5.T P ..+.G.~.{.L.S.X.$.a.Z.a.$.~ M ",
"5.&.n 9.X.N n I *.p.'. XT.T.Q.l.D.8.g.&XjXE.Q.4.m f w h ,.L L L G G 7.J.g.k.k.] W.E.dXgX5X^.^.+Xh.^.G.s.!.@XH.K.s.a.$.Z j 3 > : ",
"w.%.I 9.X.! _ ` 6.6.0.0.6.k.).Q.XXT.Q.<XjX.X.X8., % # e ,.L <.w 8 8 9 T.T.Q.' e.1.J.5XgXmXBX2X[./.E.j.f.p.E.F.s.a.=.k + X o o O ",
"S.0.o.` I ^ @.U G U o.%.9.`.fXNX3X}.7.E.W.jXZX<XC z % # <.L e.# @ , ) oX<X>XT.<.8.J o.#XhXfXQ.oXW.Q.f.f.f.!.].+XK.U.a./ O.;. . .",
"s.&.^ X.i 9 i y N X.~.[.!.'. XhXBXmX#X` l.yXZXSXyX'.J U F f ' y 8.W.>XyXyX.XT.0.J ! ! ^ 6.].*X^.6.S.H.D.d.5X^.{.gXfXdX4X4XsXsXsX",
"-X@X!.!.s.D.S.^ %.&.h.D.[.fXhXNXnX5X X0.W.<XjXSXDXZX<Xh.F % 8 .XXXoXlXlXlX7.0.h.p.` p.H.o.o.0.^ H 6.E.H.p.*X{.!.nXmXdX*X=XbXvXsX",
"].+X*X4XR.!.[.s.w.R.@X!.J. X1XgXhXBX5Xj.}.3XjXDXJXDXAX5Xb , w.mXZXZXkXjXyX}.}.|.'.R.E./.S.s.D.L.d.` / ^ X.D.S.S.@X*X&X{.+XsXsX;X",
"%X`. X*Xs.X.s.p.R.D.j.J.&XNXhX&X|.NX2X4.J.5XDXLXDXZX#Xh.z 1 %.[.}.ZXlX>Xk.j.T.E.|.&X#X@X*X*X X|.d.S.!.d.d.%.%.S.L.{.@X{.+X;XvXMX",
"@XK.!.@Xp.x x y m #.R.aXZXhX&XE.|.hX2Xg.D.|.hXHX<Xp.~.X.b v X.J.T.&XZX7XjXT.|.|.@X`.&X2X X@X Xs.$.{.+X@.a.=.%.S.Z.F.L.L.F.!.6XAX",
"U.L.!.`.s.I ^ ! J.f.7.J.'.~.'.`.'.|.'.~.E.6.R.5X1X~.6XC.0 1 9.s.E.T.Q.}.jX<XgXmX5X5XgXnX4X`.D.s.s.`.s.X.$X$Xq.} =.q.G.F.Z.Z.].dX",
"4XpX=X`.L.p.~.*XQ.j.6.j.J.k.E.~.~.R.~.&X#XD.@X5XD.gX+.3 + o } +X/.#X~.'.k.R.#XmX4XFXIXIXLXdXH.H.!.K.| ~ F.K.a.$.=.a.K./.U.L.!.+X",
"4XpX4X=X4Xj.&.X.( [ *.j.j.6.p.9.j.J.J.h.s.p.~.S.D.h.- O X X $ w.S.R. XW.W.o.h.R.].5XFXGXGXKXZX1X!.!.S.a.K.+XU.O.Y } $.=.9.9.9.=.",
"nXnXnXhXaX{.9.N ^ H @.j.*.G U %.6.h.6.].{.d.^.|.=.- O o   . o 3 o.~.j.|.5X2Xh.|.NXFX2XNXaX&XAXKXFX[.s.%.~ +Xq.O.C C $.$.X.=.=.q.",
"*X*X=X=X*X`.p.X.P d n H d m o.s.h.p.D.@X!.S.G.P v @ + O . @ @ + c _ w./.#X5X X X*X*X&X XJ.k.%.p.!.pX*XZ.C q.q.} } M Y }  .$.X.$.",
"*X*X=X4X4X{.p.^ X.^ ` #.[ 0.j.0.g.J.L.!.!.9.x , w.z q 1 - 8 8 q P 8 ^ 0.j.[.&X~.D.9.p.p.J. X&.X.9.-.^ a.-.Y =.w.;.C v M Z ~ } $.",
"@X*X@X`.L.!.@X2X!._ ` k.j.#.0.R.h.D.S.-.%.j X 1 +.E ..w.3...P R s., d X.5.L. X/.s.6.H H 7.R.D.6.9.S.%.%.$.v  . .$.v 9 k Z ~ ~ Z ",
"].P.H.!.%X4X@X!.^ %.s.p.6.g.j.5.S.%.-.Z > o . - z 0 b E E z z P +.@ @ x } L./.S.D.L.7.H H _ 6.0.&.9.X.k } =.;.} ~ C k u 4 k }  .",
"L.@XdX4X[.D.d.j.{.%.I #.8.p.D.R._ I n : . o X $ b R 5.w.3.+.R T v +   $ 9 9.D.%.L.E.'.#._ 6.p.!.!.a.=.j 2 ; 5 V $.~ k u u V  .~ ",
"4X*X`.d.9.d.`.*X@Xs.` ` y.J.0.c 9 0 - . o O o - 1 q q q q b G N j > O o - v C.~ 9.D.'.f.f.k.!.@XdX].Z.M < 2 2 ; ; V $.=.V j ~ O.",
"D.S.d.S.L.`.].!.!.L.s.#.#.0.! $ 1 X o +   . - O @ , 8 z b 0 , - - O + @ + $ -.M p p.k.k.J.p.pXfX@X-X;XK.k ; 2 6 5 < : k } $.-. .",
"p.p.d.H.!.`.!.L.P.`. Xp.X.%.n , 9 $ 1 , . o $ o - 0 1 0 0 3 0 - - + > + + , , P y U #.p.s.5X*X4X2X4XZ.C.^.O.2 4 5 5 2 ; ; 5 q.A.",
"9.S.P.!.!.L.L.P.!.!.@XL.X.N x G z N N 1 @ X @ 9 Y P X.Y P w.M j > + $ - 9 C T X.d H ^ %.k.dXaXaX*X*X@XC.M ~ -.M 4 j ; : 2 O Z Y ",
"d.L.!.!.L.H.L.!.[.!.{.L.Y 9 i %.G ^ ^ y , 1 N D.F.G.s.S.s.Y./.Z.~ > + > x T X...` ` @.6.L.fXdXdXpX{.].]. .u V / ;.5 u < ; : v k ",
"L.L.H.D.H.L.L.E.[.`.!.9.x 1 x o.%.^ %._ c X.!.5XR.D.h.F.L.G.6X@XL.Y 1 k %.X.%.9.p.d.D.j.L.@XaXhX%X=X!.K.F.A 5 u v ;.A : : $ A 5 ",
"L.S.s.d.D.L.L.L.!.`.L.X.0 9 I %.6.` 5.5.o.p.!.#X[.j.#Xh.~./.[./.@X].9.%.!.S.p.S.p.j.S.d.S.P.%X2X&X{.L.F.;.$.} u 2 2 ;.Z : : M v ",
"9.p.d.S.D.D.L.L.P.P.j.X.i 0 X.s.#.6.o._ 6.p.h.&X X|.#X4.E.R.'.p.H.*X&Xs.[.!.d.-.s.d.9.s.p.j.L.!.%Xd.C.U.$.V } | u 2 < V A u A Z ",
"&.i.S.D.D.D.H.L.H.L.9.^ x x &.s.7.p.#._ g.k.k.1Xj.'.p._ p.4.T.0.! f. Xi.P.{.!.9.d.S.&.S.i.a.s.d.H.!.K.K.;.M M / } < ; : $ O.=.k ",
"p.p.s.d.S.D.H.H.S.L.%.B x Y 0.%.0.' #.8.0.h.p.h.4.p.p.#.8.4._ E.#._ '.j.H.[.`.9.i.S.9.P.i.i.i.Z.H.!.L.U.Z.Z j M :.V j u . < } C.",
"9.9.s.S.G.S.G.F.D.p.^ c H o.8.7.p.#.o.#.6.h.k.g.4.J.g._ 4.p.7.6.H.#.E.d.R.L.J.j.j.d.s.S.D.a.-.s.H.L.L.].a.^ j u k -.v k O $ v =.",
"9.9.9.s.d.s.s.Z.S.` N U ` o.6.j.p.#.` ' 4.J.'.J.p.E.j.' 8.j.p.w.k.p.{.J.P.E.L.j.D.H.j.d.L.Z.&.-.H.L.P.`.a.X.k 5 j } =.V 2 ; u Z ",
"9.9.q.p.d.s.s.d.6.n x _ #.4.p.j.8.' ` _ o.R. XJ.g.W.j._ #.g.0.4.p.j.%X`.J.'.J.f.H.`.H.s.L.L.p.9.j.L.K.L.s.%.M 3 5 k A.A 4 5 4 A ",
"q.q.p.s.Z.d.s.p.Y x N _ X.p.j.4.' _ _ _ _ J.'.p.7.J.g._ ' 7.6.o.6.H.&X XH. XE.j.L.#X`.j.H.H.i.9.9.d.s.a.a.-.C 2 < 5 ;. .2 k 5 O.",
"9.9.9.p.d.s.9.5.N N ! _ ` g.h._ ' _ _ ! _ j.T.8.8.j.g.#.#.7.7.#.#.J. X&XL.%X XR.R.1X#XL.D.s.%.X.&.9.9.%.;.-.Y 3 < 2 } $.k M u Z ",
"9.9.q.p.d.d.9.%.N n I ` ` 4.4.! [ ' ) J _ p.k.g.4.y.p.8.4.0.0.4.` f.E. XJ. X X}.R..X1X X!.D.9.%.9.9.-.@.;.%.~ 5 2 ; M k A M M j ",
"q.p.s.Z.G.S.9.+.N H Y _ X.o.' _ ] ] J J ' 8.p.k.8.4.8.7.0.p.p.6.! ' p.E.H.E. X X}.'..X1X#X[.!.S.9.9.9.$.q.%.} j 4 4 M > M ~ ~ M ",
"q.p.d.Z.D.G.9.X.N ^ ` _ @.8.4.#.J W K W 4.#.#.j.g.4.4.p.h.j.j.0.! ! *.J.J.P. X&X3X~.'.1X&X#X@XE.&.&.9.%.a.=. .M 3 M  .5 j ;.~ ~ "
};
