/* XPM */
static char *_c3e7874f3e743d0a9543b4ce4e52a79T6aHejFiD9B1GAkP[] = {
/* columns rows colors chars-per-pixel */
"64 64 246 2 ",
"   c #030202",
".  c #090605",
"X  c #0B0906",
"o  c #0D0B0A",
"O  c #06070A",
"+  c #120D0C",
"@  c #120A03",
"#  c #151311",
"$  c #1B1816",
"%  c #15110C",
"&  c #271608",
"*  c #241C17",
"=  c #311802",
"-  c #29221A",
";  c #382617",
":  c #342A22",
">  c #392D25",
",  c #3C332C",
"<  c #373028",
"1  c #312C28",
"2  c #472915",
"3  c #542D1A",
"4  c #49311E",
"5  c #58341A",
"6  c #50260E",
"7  c #633C1E",
"8  c #493628",
"9  c #573B26",
"0  c #443B33",
"q  c #473C33",
"w  c #633C26",
"e  c #5A422D",
"r  c #4B443C",
"t  c #4C4337",
"y  c #554435",
"u  c #5A4533",
"i  c #5C4A3B",
"p  c #57483A",
"a  c #4D402D",
"s  c #65452D",
"d  c #6C462C",
"f  c #6B482F",
"g  c #674427",
"h  c #734B2D",
"j  c #654A34",
"k  c #6C4C34",
"l  c #634B3B",
"z  c #6C4E3A",
"x  c #654633",
"c  c #734D34",
"v  c #764C34",
"b  c #6B523C",
"n  c #6B5237",
"m  c #74533B",
"M  c #7B553B",
"N  c #7C5A3C",
"B  c #775237",
"V  c #4D4642",
"C  c #4D4843",
"Z  c #544B44",
"A  c #584E45",
"S  c #584F48",
"D  c #524945",
"F  c #5B524A",
"G  c #595248",
"H  c #5B5B5D",
"J  c #585655",
"K  c #6A4E42",
"L  c #655344",
"P  c #6C5443",
"I  c #6D5946",
"U  c #6B554B",
"Y  c #6C5A4C",
"T  c #64574B",
"R  c #735643",
"E  c #745B45",
"W  c #7B5C43",
"Q  c #735C4B",
"!  c #7B5E49",
"~  c #775648",
"^  c #675D54",
"/  c #725F51",
"(  c #7D6144",
")  c #75614D",
"_  c #7C634D",
"`  c #6D645A",
"'  c #736253",
"]  c #7A6453",
"[  c #7B6955",
"{  c #7D6B5C",
"}  c #75675B",
"|  c #5E5E60",
" . c #625F60",
".. c #656364",
"X. c #696666",
"o. c #6B6966",
"O. c #666569",
"+. c #696668",
"@. c #6B6A6B",
"#. c #666867",
"$. c #7C6D63",
"%. c #746D67",
"&. c #7B726B",
"*. c #7D7467",
"=. c #6D6C71",
"-. c #716F73",
";. c #797778",
":. c #82583B",
">. c #82603B",
",. c #835D43",
"<. c #805741",
"1. c #846244",
"2. c #84654B",
"3. c #8B654C",
"4. c #84694C",
"5. c #8B6A4D",
"6. c #8D6D46",
"7. c #836653",
"8. c #846B54",
"9. c #8C6D53",
"0. c #826D5C",
"q. c #896F5C",
"w. c #916D54",
"e. c #85725D",
"r. c #8C735B",
"t. c #8B7358",
"y. c #937354",
"u. c #92745C",
"i. c #997A5B",
"p. c #906F4B",
"a. c #866B62",
"s. c #847363",
"d. c #8B7663",
"f. c #8C7965",
"g. c #857B6C",
"h. c #8C7B6C",
"j. c #867669",
"k. c #957C64",
"l. c #9B7C64",
"z. c #937D6B",
"x. c #9A7F6A",
"c. c #957563",
"v. c #8C7E71",
"b. c #847D76",
"n. c #917F72",
"m. c #927F78",
"M. c #926D67",
"N. c #A27E66",
"B. c #8C806E",
"V. c #95826C",
"C. c #9B846C",
"Z. c #9E8567",
"A. c #8D8273",
"S. c #8B827A",
"D. c #938374",
"F. c #9B8573",
"G. c #9D8A74",
"H. c #93857A",
"J. c #9A8679",
"K. c #958A7B",
"L. c #9A8B7C",
"P. c #948976",
"I. c #9F907D",
"U. c #A2846B",
"Y. c #A58B6D",
"T. c #A68667",
"R. c #A38C75",
"E. c #AA8D73",
"W. c #A28D7B",
"Q. c #A68977",
"!. c #AC9275",
"~. c #A5917B",
"^. c #AB937C",
"/. c #AA9577",
"(. c #B2967B",
"). c #B1977B",
"_. c #9E815F",
"`. c #7D7B80",
"'. c #817F80",
"]. c #898685",
"[. c #948B83",
"{. c #9B8D81",
"}. c #918D89",
"|. c #9D9283",
" X c #9C948B",
".X c #97928B",
"XX c #959393",
"oX c #9A9798",
"OX c #908E93",
"+X c #A28D82",
"@X c #A29484",
"#X c #AB9683",
"$X c #A49986",
"%X c #AC9984",
"&X c #A49589",
"*X c #AA9789",
"=X c #A69A8A",
"-X c #AA9C8C",
";X c #B49B84",
":X c #B29E8B",
">X c #B69A89",
",X c #AC9E91",
"<X c #A39C97",
"1X c #ABA18D",
"2X c #B4A28C",
"3X c #BAA48D",
"4X c #B8A086",
"5X c #ADA293",
"6X c #ACA49B",
"7X c #A8A39A",
"8X c #B3A494",
"9X c #BAA693",
"0X c #BCAA94",
"qX c #B3A69A",
"wX c #B5AA9A",
"eX c #BAAD9D",
"rX c #B6A798",
"tX c #BCB19E",
"yX c #A19FA2",
"uX c #A5A1A4",
"iX c #AAA4A5",
"pX c #ABA9A9",
"aX c #BCAEA1",
"sX c #B3ABA5",
"dX c #BDB2A2",
"fX c #BBB3AB",
"gX c #AFAAB0",
"hX c #C1A88E",
"jX c #C2AB94",
"kX c #C1AE9A",
"lX c #C9AF94",
"zX c #C4B19C",
"xX c #CBB49C",
"cX c #C1B097",
"vX c #C1ACA3",
"bX c #C1B5A5",
"nX c #C2B3A3",
"mX c #CCBAA3",
"MX c #C4B6AA",
"NX c #C5BAAB",
"BX c #C8B8A8",
"VX c #C9BDB1",
"CX c #D1BFA7",
"ZX c #C39C97",
"AX c #CEC1B4",
"SX c #D2C5B4",
/* pixels */
"aXMXMXdXbXdXdXbXVXaXdXaXbXwXNXbXnXBXNXbXbXnXnXaXeXNXeXdXbXtXnX9XeXeXeXeXeXdXdXnXdXdXbXbXbXbXbXbXbXbXbXbXbXbXdXdXdXnXaXfX7X;.@.O.",
"bXMXdXeXbXdXdXdX=XNXdXVXwXSXbXtXBXeXeXbXbXwXeXMXeXBXdXnXtXqXwXnXeXeXeXeXeXeXdXdXdXdXdXdXdXdXdXdXbXbXbXbXbXbXdXdXbXbXdXMX6X;.@.O.",
"bXbXdXeXbXtX5X5Xv.qX$.NXdXwXdXdXBXdXtXdXdXdXnXBXkX9XkXzXeXwXqXdXwXwXwXwXwXeXeXeXeXdXdXdXdXdXdXdXbXbXbXbXbXbXbXdXnXMXfXfXiX;.+.O.",
"dXbXbXbXbXqX=X&X|.=XK.*.=XAXbXdXdXNXbXtXdXmXzX:X^.C.Q.^.8XBXqX6XwXwXwXwXwXwXeXeXeXeXdXdXdXdXdXdXbXbXbXbXbXbXdXdXtXbXfXsXpX;.O...",
"eXbXbXbXdX5X=X,XMXaX=XA.bXwXNXtXeXbXbXtX0X0XQ.r.5.M 2.7.x.eXeX5XwXrXrXrXwXwXwXeXeXeXeXdXdXdXdXdXdXdXbXbXdXdXdXdXtXdXfXsXpX-.O.O.",
"tXnXnXdXeX5X6XfXdXbXbXp T eXwXtXMXdXdXnX3XC.2.M M c m z R G.rXqXrX9XqXqX9XwXwXwXwXeXeXeXtXtXdXdXdXdXdXdXdXdXdXdXtXMXfXiXgX-.O.+.",
"tXnXtXdXdXqXqXfXwXNXAXNXdXbXbXnXNXdXnXzX^.2.c B k f d s w ] -XqXqXqXqXqXqXqXqXqXwXwXwXeXeXeXeXeXdXdXdXdXdXdXeXeXwXdXsX<XgX-...+.",
"tXtXeXdXbXwX6XsXNXqXVXSXSXwXeXnXaXnXnX:Xk.M v B 9 5 3 w 9 R %X2X8X8X8X8X8X8XqXqXqXqXwXwXwXwXeXeXeXeXdXdXeXeXeXeXwXdXsXoXgX=...+.",
"dXdXdXdXdXdXeXtXaXMXAXVXsXdXBX0XhXE.u.2.2.1.N N W B c B 9 ! U.>X8X9XqX6X7X5X5X2X5X5X5X5XqXwXwXeXeXeXaXdXdXdXdXdXtXwXfXXXuX..+.X.",
"dXdXdXdXdXdXeXtXNXdXaXaXaXnX0X2Xl.9.,.W N M M M M B d W m ! R 7.L.-X,X=X,XqXqX$X-X-X1X5X5XqXwXwXwXwXeXeXeXeXeXeXeXwXsXXXyX..+...",
"dXtXdXdXeXeXeXeXdXdXeXnXnX4XC.u.,.,.W M B f d d c N s W k j 5 m R z.-X,X=X=X-X1X-X-X-X-X5X5XqXqXqXwXwXwXwXwXwXwXwXwXsXXXoX..+...",
"eXeXeXeXeXeXeXeXqXnXnXkX4Xl.N N 3.,.M h g g d c g m z _ 9 9 3 x s R x.:X-X|.|.5X=X=X=X-X-X5X5X5XqXqXqXqXqXqXwXqXwXwXpXoXOX..X...",
"eXeXeXeXeXeXeXeXqXnX9XR.u.1.N 1.<.v g 5 7 v 1.w.U.u.7.] 2 9 s s M k W x.%X-X$X X=X=X=X=X=X-X5X5X6X6XqXqXqXqXqXqXqXwXiXoX]...X...",
"eXeXeXeXeXeXeXeXtX0XR.9.,.:.:.N w g g h :.5.w.w.W b Q l & 4 2.3.2.1.( 2.x.*X-X|.@X@X@X@X=X=X-X-X5X5X6X5X5X5XqXqX5XwX7XyX`.O.X.X.",
"eXeXeXeXeXwXwXwX0X~.u.3.,.:.v g w h >.6.y.y.2.R 7.r.#XD.i 9 M N 4.y.y.5.t.G.&X&X@X@X@X@X@X=X=X=X-X,X,X5X7X5X5X5X5XqX7XuX;.O.+.X.",
"eXeXeXeXwXwXwXwX3Xk.2.3.:.v h w M 1.6.6.6.1.m k k.d.F.{ L 9 M 3.5.p.y.i.k.F.+X&X|.|.|.|.|.@X$X=X=X-X-X5X5X5X5X5X1X6X<XuX-.O.+.X.",
"eXeX5XeXrXnXrX0X>X1.5.h :.7 5 c l.i.i.T.5.m 8 } t.f.I ; L u 8.y.Z.i.i.i.Z.C.I.@X|.|.|.L.L.{.@X&X|.|.=X=X-X-X,X,X6X=X XpX+.+.-...",
"qXeXwXvX:X^.k.u.9.<.,.h g 5 c 9.Y.u.W 4.2.= 4 y ) ) 8 ; y b r.U.l.i.i.T.Y.R.W.{.I.L.L.L.L.{.{.|.{.|.&X=X=X=X=X-X,X X.XpX+.+.@...",
"8XeXeX9XR.u.B f B ,.M v 3 9 W r.s 4.e.a ; Q u j b Q y y T D.^.R.C.Z.U.!.;X%X@X{.L.K.K.L.L.L.K.K.L.{.|.@X@X&X=X=X=X X[.pXX.+.X.X.",
"qXwX2XE.u.,.d 7 h M d c 3 z R ] Z.Q.B.Z T Y r.B 8 8 y $.H.wXnX3XR.R.^.4X3X%X+XL.L.K.P.K.K.H.H.H.K.L.{.|.|.|.@X&X&X X].pX+.@.O.X.",
"eX9X^.u.1.B g 5 :.h f f 2 P b d.t.b ; < r L _ ,.a.U H.MXNXeXeX0XJ.@X9XcX9XW.z.z.P.D.D.D.P.D.D.H.K.K.K.L.{.{.|.|.|. X].7X+.@.O.o.",
"wX8X^.5.M d w 6 :.v k 2 = 4 8 0.( 9 { & F i q.! K U rXVXVXwXnX8X+X:XzXmX8XV.e.d.F.V.D.D.D.A.A.K.D.H.K.K.K.K.L.{.{. X}.XX@.+.+.X.",
"qX8X).5.M w w 2 v f 9 = 2 ; ; e s E _ Q ' Q *XQ.M.a.9XrXwXqXrX@XwXeXbXeX~.e.e.x.F.F.W.W.J.h.h.D.A.A.D.D.D.H.K.L.K. X.X].@.O.@...",
"qX8X;X5.M w w 3 M c 3 ; q.] R e b b E b P *XvXvXZX~ ] h.L.P.@XrXVXBXeX=Xh.[ r.R.^.^.#X#XW.h.d.h.A.A.A.A.A.D.H.K.K. X.Xb.@...-.^ ",
"wXrX-XF.7.k w 3 B c 2 3 9.3.5.6.B k z 0.*XnXnX8X+XU U v.A.A.-XBXaXdXL.h.s.q.Q.;X-X9XmX;Xr.t.4.4.z.h.h.A.A.D.H.H.K.H.iX;...@...+.",
"5XqX9X:XU.7.x 5 N c 6 3 9.w.i.i.U.U.R.-XeXnXeX8Xa.v.H.H.D.K.-XkX{.s.{ { d.^.9X;XzXmX:X^.r.t.( 5.d.d.h.B.A.A.A.A.P.S.iX;...@...+.",
"6X8X9X9X:XW.d.] M M 5 5 3.y.T.Y.E.E.^.8XwX8X&X{.H.H.*X*X@X9X-X] / 8 ' V.W.9XjXjXmX2X4XF.C.u.( 4.7.q.j.h.h.b.A.A.D.S.uX;.O.o...+.",
"qX8X,X8X8X8X-X*X<.:.d w 3.y.T.!.Y.Z.G.:XeXqX&X{.H.rXeX*X@Xd.l u 8 i P.2X2XjXjX3X:XkXC.k.E.7.7.( W _ 8.d.j.g.g.g.B.b.uX-.O.o.O.O.",
",X,X8X6X5X5X-X-X3.<.c w 3.l.Y.Y.E.R.Q.8XvXvXwXqXnXwXkX-X] j x 9 9 W.0X3XjXxXxX%XmXf.#XC.e r.8.z k b R ] s.j.g.*.h.g.uX=.+.o.o.X.",
"-X,X8X-X-X-X-X5Xx.,.f 5 5.E.!.C.R.%XrXnXMXMXMXBXBXrXa.K ! R s z V.jX%X;XmXzX9X%X%XG.:Xj r.t.e W k k b E 0.j.g.*.g.&.uX=.@.X.o.+.",
"8X2X-X-X-X-X8X9X#Xq.m 9 1.E.^.~.%X0XBXMXMXBXeX8Xh.] K z z m 2.u.xX3X^.4XxX3X^.^.V.0X8.7.;Xb k.j n k k R [ j.j.g.j.&.uX@.@...@.+.",
"-X-X-X-X-X-X-X-X8Xz.7.9 m l.#X2X:XrXeXqX8X*XD.] L K ~ c.Q.c.x.xXhXhXxX3X;X3XW.k.3X^._ ;X_ C.r.R k f j b Q { $.*.j.&.iX@.@...@.+.",
"-X-X-X-X-X-X-X-X5X-Xz.P z 7.U.^.#X8X8XW.q.l x R Y { D.#X:X9XjXxXlX3XxXxXC.;X[ 4X;X8.V.G.f.r.b b E m z k b ] s.&.&.b.XX+.+.+...@.",
"-X-X-X-X-X-X-X-X-X-X@Xz.Q l Q z.D.z.0.L y 9 l 0.J.J.W.:XkXxXxXxX4XxX;X3X^.8.;X0XG.;Xe.V.~.) C._ b k f s j Q $.$.&.S.XX+.+.+...o.",
"-X-X-X-X-X-X-X-X-X$X-X:XF.I u u l l e 9 i Q h.*XeX0X9X0XzXxXhX4XjXjX;X4X^.R.Q.:Xe.d.%X~.) z.Q ] b j s s s R { $.&.].}.+.+.+...o.",
"-X-X-X-X-X-X-X-X=X=X=X-X-XL.] u l P Q ] f.P.#X0X0XzXmXCXmXxXcXjXjXR.;X~.x.4X0.P.h.-X8X{ n.] Y 0.P k f f j R } { &.}.].+.@.+.O.X.",
"-X-X-X-X-X-X=X=X@X-X-X|.@X-X$XP.e.x.F.G.#X:X0XzXcXmXSXmXcX3X4X3X;XQ.:XF.G.f.~.W.*X8Xj.@Xs.0.s.U P j k k k R ] { &.XX;.O.@.X.o.X.",
"-X-X-X=X=X=X=X=X&X=X=X=X$X$X$X*XV.~.#X%X0XcXzXAXmXxXcX0X2X%X^.^.#X#X~.%XL.F.-XL.K.J.-Xs.J.{ K ] b j k k k b ) } %.oX-.O.@.O.o.X.",
"=X=X=X=X=X=X=X=X*X@X@X=X1X@XJ.D.~.2X8X0X0XkX0X0XcX0X9X2X-X:X2X2XG.V.F.*X0.-Xh.h.=X|.J.F.Y ] 0.q.I z m B B m Q ] %.7X@.O.@.O.+.X.",
"=X=X=X=X=X=X=X=X*X*X&X@X|.@X@X@X$X2X2X2X0XkXjXjX0X0X8X*XJ.z.h.h.F.z.~.L.{ D.L.@X=XJ.h.s.s.0.] l ] E W W B m Q ) %.7XX.O.@.O.+.X.",
"&X=X&X&X@X&X-X-X$X@X@X@X@X|.@X=X1X~.!.E.;X4XW.^.;X^.Q.Q.#X-X-X$X*X#X@X{ { D.:XD.$XD.@Xs.d.e.r.k.V.7.W W W m P ' O.uX@.+...X.O.O.",
"&X=X,X,X=X|.L.J.=X@X@X=X|.[.H.H.B.C.l.i.U./.R.;XR.^.#XQ.G.W.$X-X@Xh.j.D.n.D.D.j.D.D.J.d.e.e.d.V.F.r.2.1.( R E ' +.uX@.+...X.O.O.",
"=X=X=X@X@X@X=X=X X[.S.&.` G 0 < I x.N.N.E.E.E.).C.r.r.R.:X:X-X8X,Xv.s.@Xn.z.j.h.-XL.{ { { f.V.C.R.k.9.2.( ! ) ' @.oX@.X.O.X.O.O.",
"|.|.@X@X&X|.K.H.%.F , - $ # $ - a k.N.N.Y.Z.U.Y.^.^.^.W.F.L.#X9X&XJ.F.L.d.h.D.L.$XJ.Q { { f.G.G.W.C.u.2.W _ ) ' -.XX@.X.X.X.O.O.",
"-X|.K.{.|.b.G : $ # # $ $ $ # o q z.U.T._.i.Y.!.x.C.q.R ] F.-X@XD.D.@XJ.D.j.J.v.{ j.{ z.d.d.F.~.W.G.k.4.W ! ' ' ;.}.+.O.X.X.O.O.",
"|.=X X&.r - * - - $ o X X X o # < } Q.!.Y.Y.).;X^.>X9X%Xf.0.D.9X@XD.@XJ.J.j.h.' $.j.j.D.h.f.V.W.W.R.C.9._ ! ) ' ].].+...+.O...O.",
"[.} 0 - * * $ + + o X o o . . . # q x.(.Y./.!.Q.;XR.R.#X#XD.J.8X8X@X@XL.H.D.j.Y L.D.D.V.V.k.z.G.L.G.x.r.2.E Q ' ].].+...+.O...O.",
"0 : * # $ $ + O + X X X .     . $ , z.^.C././.E.;X^.x._ ] z.W.L.L.@X@X@XD.=XA.T D.h.-XL.F.d.d.G.L.F.k.r.2.R Y ' ].;.+...+.....O.",
"$ $ # o O . . X   . X           + * Y U.Y.E.T.Y.C.k.G.#Xz.{ j.L.h.h.L.$XD.&XK.g.D.D.D.D.s.e.C.r.R.C.k.r.8.] ' ^ oX@.O.+...O.....",
"# + X .       .   . .           . - [ !.!.!.T.T.k.r.V.~.D.s.s.v.s.s.j.v.h.-X&XK.J.D.J.L.s.e.W.C.^.E.l.r.8.] ' ' oX@.O.X...O.....",
". .             . .         .     > f.).(.(.Y.Y.R.C.C.R.P.{ Y Y ' { h.v.v.-X@XH.J.n.L.@Xj.f.%X^.Y.E.Z.u.u.[ Y ' XX@.O.X...O.....",
"                          . .   . t D.;X(.(.).^.R.R.V.V.P.d.Y Y Y 0.D.h.h.L.H.H.D.h.H.{.j.V.4X^.i.T.i.y.u.] Y ' XX@...O...O.....",
"                                % T ~.;X!.(.).~.W.W.V.k.V.s.' ' Y ' s.' { v.D.L.L.D.D.H.j.P.;Xk.i.y.5.5.r.] / { XX+...O. .......",
"                                ; s.%X;X!.E.~.V.G.G.C.f.d.{ ] ] Q Y / U $.h.h.m.@X{.D.D.h.V.R.9.5.1.5.i.k.e.} ` XX+..... .......",
"                            X # p L.4X).!.C.C.f.e.e.f.d.[ 0.s.0.U P / L { } } j.@X|.A.D.n.e.r.r.9.N 5.U.F.j.$.^ XX+..... .......",
"                          . $ 1 { 8X0X).Y.l.V.d.e.e.h.d.) ) ] I L L Q i L i Y D.L.L.v.D.h.) 7.l.U.( 2.C.d.j.g.o.XX+. ...^ ......",
"          . . . O O   X & y f.G.#X2X2X~.F.D.h.{ ] { { { ' Y L L u j l l p L a.J.{.H.v.j.$.$.$.$.&.} ` ` } ^ F %.].@.| ....| ..| ",
"                    @ F [ e.k.7.C.G.W.G.F.D.j.{ ' [ { [ ) L i u u u u p i U $.m.[.[.[.H.*.T q > 0 0 t r p r r o.;.+.| ..| | ..H ",
"        . . . . + @ , D.V.2.2.N ( ( 4.r.k.d.{ / ' ' ' L i p y p p L ' s.v.m.S.S.F Z 0 : - : , 0 0 0 r r r r D ;.;...| | | | | H ",
"                    ` -XW.8.9.5.k s j W q.0.' / L L T T / { j.D.H.g.$.^ Z 0 < : , 0 r C D D Z V Z Z A Z Z r S b.-...| ..| | | H ",
"                O o XX X{.j.e.] k 9 5 j I Y L U *.g.A.H.g.} A t : : > < , q V D D D D C V V V V V V Z r r r S b.@.| | ..H H | H ",
"                  $ uX].b.%.} ` e 4 4 y U ' } $.T A q , > > 8 0 0 r A G G A C r r V D D D D C V S D Z Z A D J ].O.| | | H H | H ",
".           . .   - }.}.;.` ^ J p 0 > > : - * - 0 q r Z A A Z p A S A Z Z G G G G A Z V r V Z Z D D A Z Z V F ]...H | H J H H H ",
"      + - V  .-.[. X|.[.` , - % + + # : , r Z F S S S S G G A A Z A G G F J G p G A A A Z Z Z Z V V A A A C J ].| H H H J J H J "
};
